svg/Filled/flash_filled.svg

<svg viewBox="0 0 24 24" xmlns="http://www.w3.org/2000/svg" width="24" height="24"><path d="m14.77 1.36.2.05.1.04.1.04.17.13.08.08.06.08.1.18.04.1.03.1.02.22v.1l-.02.06-1.16 6.35a.1.1 0 0 0 .1.12h4.37a.9.9 0 0 1 .7 1.47l-9.54 11.79a1 1 0 0 1-.78.37 1 1 0 0 1-.99-1.18l1.16-6.35a.1.1 0 0 0-.1-.12H5.04a.9.9 0 0 1-.7-1.47l9.54-11.78a1 1 0 0 1 .32-.27l.11-.05a1 1 0 0 1 .35-.06z"/></svg>

<svg viewBox="0 0 24 24" xmlns="http://www.w3.org/2000/svg" width="24" height="24"><path d="M14.77 1.36L15.17 1.49L15.48 1.78L15.65 2.16L15.65 2.54L14.49 8.89A.1 .1 0 0 0 14.59 9.01L18.96 9.01A.9 .9 0 0 1 19.66 10.48L10.12 22.27A1 1 0 0 1 9.34 22.64A1 1 0 0 1 8.35 21.46L9.51 15.11A.1 .1 0 0 0 9.41 14.99L5.04 14.99A.9 .9 0 0 1 4.34 13.52L13.88 1.74A1 1 0 0 1 14.2 1.47L14.31 1.42A1 1 0 0 1 14.66 1.36Z"/></svg>
